X: 157
T:Fete du Village
M:2/4
L:1/8
Q:1/8=500
R:Polka
K:G
d3 c B2 AB | c2 B2 A4 | B2 G2 GFGB | AGFE D2 Bc |
d3 c B2 AB | c2 B2 A4 | B2 d2 cBAF | G4 G4 :||
DGBG DFAF | DGBG DFAF | G2 d2 c2 B2 | AGAB A2 D2 |
DGBG DFAF | DGBG DFAF | D2 d2 cBAF | G4 G4:|
